svg/emoji_u1f39a.svg

<svg enable-background="new 0 0 128 128" viewBox="0 0 128 128" xmlns="http://www.w3.org/2000/svg"><radialGradient id="b" cx="62.75" cy="4.25" r="119.82" gradientUnits="userSpaceOnUse"><stop stop-color="#CFD8DC" offset="0"/><stop stop-color="#C6D1D6" offset=".1946"/><stop stop-color="#AFBDC4" offset=".5083"/><stop stop-color="#90A4AE" offset=".8259"/><stop stop-color="#90A4AE" offset="1"/></radialGradient><path d="m80 124h-32c-4.4 0-8-3.6-8-8v-104c0-4.4 3.6-8 8-8h32c4.4 0 8 3.6 8 8v104c0 4.4-3.6 8-8 8z" fill="url(#b)"/><g opacity=".2"><path d="m80 7c2.76 0 5 2.24 5 5v104c0 2.76-2.24 5-5 5h-32c-2.76 0-5-2.24-5-5v-104c0-2.76 2.24-5 5-5h32m0-3h-32c-4.4 0-8 3.6-8 8v104c0 4.4 3.6 8 8 8h32c4.4 0 8-3.6 8-8v-104c0-4.4-3.6-8-8-8z" fill="#BDBDBD"/></g><g opacity=".2"><rect x="47.94" y="23" width="32" height="1" fill="#90A4AE"/></g><g opacity=".2"><rect x="47.94" y="35" width="32" height="1" fill="#90A4AE"/></g><g opacity=".2"><rect x="47.94" y="47" width="32" height="1" fill="#90A4AE"/></g><g opacity=".2"><rect x="47.94" y="59" width="32" height="1" fill="#90A4AE"/></g><g opacity=".2"><rect x="47.94" y="71" width="32" height="1" fill="#90A4AE"/></g><g opacity=".2"><rect x="47.94" y="83" width="32" height="1" fill="#90A4AE"/></g><g opacity=".2"><rect x="47.94" y="95" width="32" height="1" fill="#90A4AE"/></g><g opacity=".2"><rect x="47.94" y="107" width="32" height="1" fill="#90A4AE"/></g><path d="m64 117.5c-3.03 0-5.5-2.47-5.5-5.5v-96c0-3.03 2.47-5.5 5.5-5.5s5.5 2.47 5.5 5.5v96c0 3.03-2.47 5.5-5.5 5.5z" fill="#607D8B"/><path d="m64 12c2.2 0 4 1.8 4 4v96c0 2.2-1.8 4-4 4s-4-1.8-4-4v-96c0-2.2 1.8-4 4-4m0-3c-3.86 0-7 3.14-7 7v96c0 3.86 3.14 7 7 7s7-3.14 7-7v-96c0-3.86-3.14-7-7-7z" fill="#78909C"/><g opacity=".2"><path d="m64 14c1.1 0 2 0.9 2 2v96c0 1.1-0.9 2-2 2s-2-0.9-2-2v-96c0-1.1 0.9-2 2-2m0-2c-2.2 0-4 1.8-4 4v96c0 2.2 1.8 4 4 4s4-1.8 4-4v-96c0-2.2-1.8-4-4-4z" fill="#BDBDBD"/></g><radialGradient id="a" cx="63.833" cy="80.417" r="14.305" gradientUnits="userSpaceOnUse"><stop stop-color="#40C4FF" offset="0"/><stop stop-color="#3DC1FE" offset=".2777"/><stop stop-color="#32B9FA" offset=".5131"/><stop stop-color="#21ABF5" offset=".733"/><stop stop-color="#0898ED" offset=".9423"/><stop stop-color="#0091EA" offset="1"/></radialGradient><path d="m73.55 89.75h-19.1c-1.35 0-2.45-1.1-2.45-2.45v-7.1c0-1.35 1.1-2.45 2.45-2.45h19.1c1.35 0 2.45 1.1 2.45 2.45v7.1c0 1.35-1.1 2.45-2.45 2.45z" fill="url(#a)"/><g opacity=".2"><path d="m73 80.75v6h-18v-6h18m0.55-3h-19.1c-1.35 0-2.45 1.1-2.45 2.45v7.1c0 1.35 1.1 2.45 2.45 2.45h19.1c1.35 0 2.45-1.1 2.45-2.45v-7.1c0-1.35-1.1-2.45-2.45-2.45z" fill="#424242"/></g></svg>

<svg width="128" height="128" style="enable-background:new 0 0 128 128;" xmlns="http://www.w3.org/2000/svg" xmlns:xlink="http://www.w3.org/1999/xlink">
  <radialGradient id="SVGID_1_" cx="62.75" cy="4.25" gradientUnits="userSpaceOnUse" r="119.8168">
    <stop offset="0" style="stop-color:#CFD8DC"/>
    <stop offset="0.1946" style="stop-color:#C6D1D6"/>
    <stop offset="0.5083" style="stop-color:#AFBDC4"/>
    <stop offset="0.8259" style="stop-color:#90A4AE"/>
    <stop offset="1" style="stop-color:#90A4AE"/>
  </radialGradient>
  <path d="M80,124H48c-4.4,0-8-3.6-8-8V12c0-4.4,3.6-8,8-8h32c4.4,0,8,3.6,8,8v104 C88,120.4,84.4,124,80,124z" style="fill:url(#SVGID_1_);"/>
  <g style="opacity:0.2;">
    <path d="M80,7c2.76,0,5,2.24,5,5v104c0,2.76-2.24,5-5,5H48c-2.76,0-5-2.24-5-5V12c0-2.76,2.24-5,5-5H80 M80,4H48c-4.4,0-8,3.6-8,8v104c0,4.4,3.6,8,8,8h32c4.4,0,8-3.6,8-8V12C88,7.6,84.4,4,80,4L80,4z" style="fill:#BDBDBD;"/>
  </g>
  <g style="opacity:0.2;">
    <rect height="1" style="fill:#90A4AE;" width="32" x="47.94" y="23"/>
  </g>
  <g style="opacity:0.2;">
    <rect height="1" style="fill:#90A4AE;" width="32" x="47.94" y="35"/>
  </g>
  <g style="opacity:0.2;">
    <rect height="1" style="fill:#90A4AE;" width="32" x="47.94" y="47"/>
  </g>
  <g style="opacity:0.2;">
    <rect height="1" style="fill:#90A4AE;" width="32" x="47.94" y="59"/>
  </g>
  <g style="opacity:0.2;">
    <rect height="1" style="fill:#90A4AE;" width="32" x="47.94" y="71"/>
  </g>
  <g style="opacity:0.2;">
    <rect height="1" style="fill:#90A4AE;" width="32" x="47.94" y="83"/>
  </g>
  <g style="opacity:0.2;">
    <rect height="1" style="fill:#90A4AE;" width="32" x="47.94" y="95"/>
  </g>
  <g style="opacity:0.2;">
    <rect height="1" style="fill:#90A4AE;" width="32" x="47.94" y="107"/>
  </g>
  <g>
    <path d="M64,117.5c-3.03,0-5.5-2.47-5.5-5.5V16c0-3.03,2.47-5.5,5.5-5.5c3.03,0,5.5,2.47,5.5,5.5v96 C69.5,115.03,67.03,117.5,64,117.5z" style="fill:#607D8B;"/>
    <path d="M64,12c2.2,0,4,1.8,4,4v96c0,2.2-1.8,4-4,4c-2.2,0-4-1.8-4-4V16C60,13.8,61.8,12,64,12 M64,9 c-3.86,0-7,3.14-7,7v96c0,3.86,3.14,7,7,7s7-3.14,7-7V16C71,12.14,67.86,9,64,9L64,9z" style="fill:#78909C;"/>
  </g>
  <g style="opacity:0.2;">
    <path d="M64,14c1.1,0,2,0.9,2,2v96c0,1.1-0.9,2-2,2s-2-0.9-2-2V16C62,14.9,62.9,14,64,14 M64,12 c-2.2,0-4,1.8-4,4v96c0,2.2,1.8,4,4,4c2.2,0,4-1.8,4-4V16C68,13.8,66.2,12,64,12L64,12z" style="fill:#BDBDBD;"/>
  </g>
  <g>
    <radialGradient id="SVGID_2_" cx="63.8333" cy="80.4167" gradientUnits="userSpaceOnUse" r="14.3047">
      <stop offset="0" style="stop-color:#40C4FF"/>
      <stop offset="0.2777" style="stop-color:#3DC1FE"/>
      <stop offset="0.5131" style="stop-color:#32B9FA"/>
      <stop offset="0.733" style="stop-color:#21ABF5"/>
      <stop offset="0.9423" style="stop-color:#0898ED"/>
      <stop offset="1" style="stop-color:#0091EA"/>
    </radialGradient>
    <path d="M73.55,89.75h-19.1c-1.35,0-2.45-1.1-2.45-2.45v-7.1c0-1.35,1.1-2.45,2.45-2.45h19.1 c1.35,0,2.45,1.1,2.45,2.45v7.1C76,88.65,74.9,89.75,73.55,89.75z" style="fill:url(#SVGID_2_);"/>
  </g>
  <g style="opacity:0.2;">
    <path d="M73,80.75v6H55v-6H73 M73.55,77.75h-19.1c-1.35,0-2.45,1.1-2.45,2.45v7.1 c0,1.35,1.1,2.45,2.45,2.45h19.1c1.35,0,2.45-1.1,2.45-2.45v-7.1C76,78.85,74.9,77.75,73.55,77.75L73.55,77.75z" style="fill:#424242;"/>
  </g>
</svg>
